X:2387
T:Cabin Down the Lane
M:4/4
L:1/8
K:G
Bc|d2 ed dBGA|BGEG D3 B|c2 cd edcB|A2 A2 A2 Bc|!
d2 ed dBGA|BGEG D2 GA|BdBG EcAF|G2 G2 G2:|!
|:AB|cBcd c2 Bc|dBBG A2 Bc|d2 BG edcB|A2 A2 A2 Bc|!
dBec dBGA|BGEG D2 GA|BdBG AcAF|G2 G2 G2:|!


